!!!COM: Beethoven
!!!OTL: 13 Variationen uber "Es war einmal ein alter Mann" aus "Das rote Kappchen" von K. Ditters von Dittersdorf
!!!Variation: 11 f
**function	**harm	**kern	**kern	**kern
*	*	*staff3	*staff2	*staff1
*	*	*clefF4	*clefF4	*clefG2
*	*	*k[f#c#g#]	*k[f#c#g#]	*k[f#c#g#]
*	*	*M2/4	*M2/4	*M2/4
*	*	*A:	*A:	*A:
8T	8I	8EE'	8r	8r
=	=	=432	=432	=432
2.T	2.I	8AA'L	2.r	16eeLL
.	.	.	.	16e
.	.	8EE'	.	16f#
.	.	.	.	16e
.	.	(8BBJ	.	16f#
.	.	.	.	16eJJ
.	.	8C#'L)	.	16eeLL
.	.	.	.	16e
.	.	8AA'	.	16f#
.	.	.	.	16e
.	.	(8DJ	.	16f#
.	.	.	.	16eJJ
=	=	=433	=433	=433
2.T	2.V65	8E'L)	2.r	16eeLL
.	.	.	.	16e
.	.	8BB'	.	16f#
.	.	.	.	16e
.	.	(8F#J	.	16f#
.	.	.	.	16eJJ
.	.	8E'L)	.	16g#LL
.	.	.	.	16e
.	.	8BB'	.	16f#
.	.	.	.	16e
.	.	(8DJ	.	16f#
.	.	.	.	16eJJ
=	=	=434	=434	=434
2.T	2.I	8C#'L)	2.r	16aLL
.	.	.	.	16e
.	.	8AA'	.	16f#
.	.	.	.	16e
.	.	(8BBJ	.	16f#
.	.	.	.	16eJJ
.	.	8C#'L)	.	16eeLL
.	.	.	.	16e
.	.	8AA'	.	16f#
.	.	.	.	16e
.	.	(8DJ	.	16f#
.	.	.	.	16eJJ
=	=	=435	=435	=435
2.T	2.V65	8E'L)	2.r	16eeLL
.	.	.	.	16e
.	.	8BB'	.	16f#
.	.	.	.	16e
.	.	(8F#J	.	16f#
.	.	.	.	16eJJ
.	.	8E'L)	.	16g#LL
.	.	.	.	16e
.	.	8BB'	.	16f#
.	.	.	.	16e
.	.	(8DJ	.	16f#
.	.	.	.	16eJJ
=	=	=436	=436	=436
4.T	4.I	8C#'L)	2.r	16aLL
.	.	.	.	16e
.	.	8AA'	.	16f#
.	.	.	.	16e
.	.	(8C#J	.	16f#
.	.	.	.	16eJJ
4.D	4.V	8BB'L)	.	16g#LL
.	.	.	.	16d
.	.	8EE'	.	16e
.	.	.	.	16d
.	.	8BBJ	.	16e
.	.	.	.	16dJJ
=	=	=437	=437	=437
4.T	4.I	8AA'L	2.r	4c# 4a
.	.	(8A	.	.
.	.	8F#J	.	8r
8T	8I64	8E'L)	.	8r
4P	4IV	(8F#	.	(8aL
.	.	8DJ	.	8f#J)
=	=	=438	=438	=438
4.P	4.I	8C#'L)	2.r	16ALL
.	.	.	.	16e
.	.	8AA'	.	16A
.	.	.	.	16e
.	.	(8C#J	.	16A
.	.	.	.	16eJJ
4.D	4.V	8BB'L)	.	16dLL 16g#
.	.	.	.	16e
.	.	8EE'	.	16d 16g#
.	.	.	.	16e
.	.	(8BBJ	.	16d 16g#
.	.	.	.	16eJJ
=	=	=439	=439	=439
4.T	4.I	8AA'L)	2.r	4c# 4a
.	.	(8A	.	.
.	.	8F#J	.	8r
8T	8I64	8E'L)	.	8r
4P	4IV	(8F#	.	(8aL
.	.	8DJ	.	8f#J)
=	=	=440	=440	=440
4.P	4.I	8C#'L)	2.r	16ALL
.	.	.	.	16e
.	.	8AA'	.	16A
.	.	.	.	16e
.	.	(8C#J	.	16A
.	.	.	.	16eJJ
4.P	4.V	8BB'L)	.	16dLL 16g#
.	.	.	.	16e
.	.	8EE'	.	16d 16g#
.	.	.	.	16e
.	.	(8BBJ	.	16d 16g#
.	.	.	.	16eJJ
=	=	=	=	=
2.T	2.I	8AA'L)	4.r	4c# 4a
.	.	8EE'	.	.
.	.	8CC#'J	.	8r
.	.	4AAA	4r	4r
.	.	8r	8r	8r
*	*	*||	*||	*||
*-	*-	*-	*-	*-
